svgs/sharp-solid/objects-align-center-horizontal.svg

<svg xmlns="http://www.w3.org/2000/svg" viewBox="0 0 512 512"><!--! Font Awesome Pro 6.6.0 by @fontawesome - https://fontawesome.com License - https://fontawesome.com/license (Commercial License) Copyright 2024 Fonticons, Inc. --><path d="M280 0L232 0l0 64L32 64l0 160 200 0 0 64L96 288l0 160 136 0 0 64 48 0 0-64 136 0 0-160-136 0 0-64 200 0 0-160L280 64l0-64z"/></svg>

<svg xmlns="http://www.w3.org/2000/svg" viewBox="0 0 512 512"><!--! Font Awesome Pro 6.4.2 by @fontawesome - https://fontawesome.com License - https://fontawesome.com/license (Commercial License) Copyright 2023 Fonticons, Inc. --><path d="M280 0H232V64H32V224H232v64H96V448H232v64h48V448H416V288H280V224H480V64H280V0z"/></svg>
